flaticon/emoticons/in-love-6.svg

<svg xmlns="http://www.w3.org/2000/svg" width="32" height="32" viewBox="0 0 24 24">
    <path d="M10.980469 12.148438C11.066406 11.800781 11.046875 11.570312 11.035156 11.484375 10.9375 10.5 10.179688 9.761719 9.265625 9.761719 8.789062 9.761719 8.339844 9.953125 8.015625 10.277344 7.695312 9.949219 7.261719 9.761719 6.789062 9.761719 5.875 9.761719 5.117188 10.5 5.019531 11.484375 5.003906 11.570312 4.984375 11.800781 5.070312 12.148438 5.199219 12.671875 5.492188 13.144531 5.917969 13.519531L7.742188 15.117188C7.820312 15.183594 7.914062 15.21875 8.011719 15.21875 8.105469 15.21875 8.199219 15.1875 8.277344 15.121094L10.132812 13.519531C10.5625 13.144531 10.855469 12.671875 10.980469 12.148438zM8.011719 14.273438L6.457031 12.90625C6.15625 12.644531 5.949219 12.316406 5.863281 11.957031 5.808594 11.738281 5.820312 11.617188 5.820312 11.617188 5.824219 11.601562 5.824219 11.589844 5.828125 11.574219 5.875 11.078125 6.21875 10.578125 6.789062 10.578125 7.164062 10.578125 7.480469 10.792969 7.636719 11.152344 7.703125 11.300781 7.847656 11.394531 8.011719 11.394531 8.171875 11.394531 8.320312 11.300781 8.382812 11.152344 8.535156 10.800781 8.882812 10.578125 9.265625 10.578125 9.835938 10.578125 10.179688 11.078125 10.230469 11.605469 10.230469 11.605469 10.246094 11.730469 10.191406 11.957031 10.101562 12.316406 9.898438 12.644531 9.601562 12.90625zM17.742188 9.761719C17.265625 9.761719 16.820312 9.953125 16.496094 10.277344 16.175781 9.949219 15.742188 9.761719 15.269531 9.761719 14.355469 9.761719 13.59375 10.503906 13.496094 11.484375 13.484375 11.570312 13.464844 11.800781 13.550781 12.148438 13.679688 12.671875 13.972656 13.144531 14.398438 13.519531L16.222656 15.117188C16.296875 15.183594 16.394531 15.21875 16.488281 15.21875 16.585938 15.21875 16.679688 15.1875 16.753906 15.121094L18.613281 13.519531C19.039062 13.144531 19.332031 12.671875 19.460938 12.148438 19.546875 11.800781 19.527344 11.570312 19.511719 11.484375 19.417969 10.5 18.65625 9.761719 17.742188 9.761719zM18.671875 11.957031C18.582031 12.316406 18.378906 12.644531 18.078125 12.90625L16.492188 14.273438 14.933594 12.90625C14.632812 12.644531 14.429688 12.316406 14.339844 11.957031 14.289062 11.738281 14.300781 11.613281 14.300781 11.613281 14.304688 11.601562 14.304688 11.589844 14.308594 11.574219 14.351562 11.078125 14.699219 10.578125 15.269531 10.578125 15.644531 10.578125 15.960938 10.792969 16.117188 11.152344 16.183594 11.300781 16.328125 11.394531 16.492188 11.394531 16.652344 11.394531 16.796875 11.300781 16.863281 11.152344 17.015625 10.800781 17.363281 10.578125 17.742188 10.578125 18.3125 10.578125 18.660156 11.078125 18.710938 11.605469 18.710938 11.605469 18.726562 11.730469 18.671875 11.957031zM18.671875 11.957031"/>
    <path d="M 12 0 C 6.054688 0 1.21875 4.835938 1.21875 10.78125 L 1.21875 15.246094 C 1.21875 15.25 1.21875 15.25 1.21875 15.25 C 1.21875 15.25 1.21875 15.253906 1.21875 15.253906 L 1.21875 20.746094 C 1.21875 21.867188 2.132812 22.78125 3.253906 22.78125 L 5.917969 22.78125 C 5.9375 22.789062 5.957031 22.796875 5.976562 22.804688 C 7.402344 23.476562 9.121094 23.878906 11.078125 23.976562 C 11.121094 23.976562 11.164062 23.980469 11.210938 23.980469 C 11.46875 23.992188 11.730469 24 12 24 C 12.269531 24 12.53125 23.992188 12.792969 23.980469 C 12.835938 23.980469 12.878906 23.976562 12.921875 23.976562 C 14.878906 23.878906 16.597656 23.476562 18.023438 22.804688 C 18.042969 22.796875 18.0625 22.789062 18.082031 22.78125 L 20.746094 22.78125 C 21.867188 22.78125 22.78125 21.867188 22.78125 20.746094 L 22.78125 10.78125 C 22.78125 4.835938 17.945312 0 12 0 Z M 17.894531 21.964844 L 17.8125 22.007812 C 16.660156 22.566406 15.289062 22.929688 13.777344 23.089844 C 13.667969 23.101562 13.558594 23.113281 13.445312 23.125 C 13.285156 23.136719 13.125 23.148438 12.960938 23.15625 C 12.648438 23.175781 12.328125 23.1875 12 23.1875 C 11.671875 23.1875 11.351562 23.175781 11.039062 23.15625 C 10.875 23.148438 10.714844 23.136719 10.554688 23.121094 C 10.445312 23.113281 10.332031 23.101562 10.222656 23.089844 C 8.714844 22.929688 7.339844 22.566406 6.191406 22.007812 L 6.105469 21.964844 L 6.070312 21.964844 C 3.476562 20.65625 2.035156 18.34375 2.035156 15.253906 C 2.035156 15.253906 2.035156 15.25 2.035156 15.25 C 2.035156 15.25 2.035156 15.25 2.035156 15.246094 C 2.039062 10.019531 6.425781 5.550781 11.796875 5.289062 L 12.183594 5.289062 C 17.578125 5.550781 21.964844 10.023438 21.964844 15.253906 C 21.964844 18.34375 20.523438 20.65625 17.933594 21.964844 Z M 3.253906 21.964844 C 2.582031 21.964844 2.035156 21.417969 2.035156 20.746094 L 2.035156 19.027344 C 2.597656 20.195312 3.441406 21.1875 4.535156 21.964844 Z M 21.964844 20.746094 C 21.964844 21.417969 21.417969 21.964844 20.746094 21.964844 L 19.464844 21.964844 C 20.558594 21.1875 21.402344 20.195312 21.964844 19.027344 Z M 12.203125 4.472656 L 11.777344 4.476562 C 7.390625 4.691406 3.625 7.492188 2.035156 11.28125 L 2.035156 10.78125 C 2.035156 5.285156 6.503906 0.8125 12 0.8125 C 17.496094 0.8125 21.964844 5.285156 21.964844 10.78125 L 21.964844 11.265625 C 20.371094 7.484375 16.601562 4.6875 12.203125 4.472656 Z M 12.203125 4.472656"/>
    <path d="M 14.480469 15.945312 C 14.300781 15.8125 14.046875 15.847656 13.914062 16.027344 C 13.777344 16.207031 13.8125 16.460938 13.992188 16.597656 L 14.609375 17.058594 C 13.789062 18.789062 11.601562 19.601562 9.738281 18.824219 C 9.53125 18.738281 9.292969 18.835938 9.203125 19.042969 C 9.117188 19.25 9.214844 19.488281 9.425781 19.578125 C 9.988281 19.8125 10.601562 19.929688 11.21875 19.929688 C 11.792969 19.929688 12.371094 19.828125 12.914062 19.621094 C 13.957031 19.222656 14.78125 18.496094 15.269531 17.554688 L 15.621094 17.816406 C 15.695312 17.871094 15.777344 17.898438 15.863281 17.898438 C 15.988281 17.898438 16.109375 17.84375 16.191406 17.734375 C 16.324219 17.554688 16.289062 17.300781 16.109375 17.167969 Z M 14.480469 15.945312"/>
</svg>

<svg xmlns="http://www.w3.org/2000/svg" width="32" height="32" viewBox="0 0 24 24">
    <path d="M10.98 12.148a1.79 1.79 0 0 0 .055-.664c-.098-.984-.855-1.722-1.77-1.722a1.77 1.77 0 0 0-1.25.515 1.7 1.7 0 0 0-1.226-.515c-.914 0-1.672.738-1.77 1.722-.015.086-.035.317.051.664.13.524.422.997.848 1.372l1.824 1.597a.413.413 0 0 0 .535.004l1.856-1.601c.43-.375.722-.848.847-1.372zm-2.968 2.125l-1.555-1.367a1.83 1.83 0 0 1-.594-.949c-.054-.219-.043-.34-.043-.34.004-.015.004-.027.008-.043.047-.496.39-.996.961-.996.375 0 .691.215.848.574.066.149.21.243.375.243.16 0 .308-.094.37-.243a.958.958 0 0 1 .884-.574c.57 0 .914.5.964 1.027 0 0 .016.125-.039.352-.09.36-.293.688-.59.95zm0 0M17.742 9.762c-.476 0-.922.191-1.246.515a1.7 1.7 0 0 0-1.226-.515c-.915 0-1.676.742-1.774 1.722a1.79 1.79 0 0 0 .055.664c.129.524.422.997.847 1.372l1.825 1.597a.404.404 0 0 0 .53.004l1.86-1.601c.426-.375.719-.848.848-1.372.086-.347.066-.578.05-.664-.093-.984-.855-1.722-1.769-1.722zm.93 2.195c-.09.36-.293.688-.594.95l-1.586 1.366-1.558-1.367c-.301-.261-.504-.59-.594-.949-.05-.219-.04-.344-.04-.344.005-.011.005-.023.009-.039.043-.496.39-.996.96-.996.376 0 .692.215.848.574a.407.407 0 0 0 .746 0 .957.957 0 0 1 .88-.574c.57 0 .917.5.968 1.027 0 0 .016.125-.04.352zm0 0"/>
    <path d="M12 0C6.055 0 1.219 4.836 1.219 10.781v9.965c0 1.121.914 2.035 2.035 2.035h2.664l.059.024c1.425.672 3.144 1.074 5.101 1.172.043 0 .086.003.133.003.258.012.52.02.789.02.27 0 .531-.008.793-.02l.129-.003c1.957-.098 3.676-.5 5.101-1.172l.059-.024h2.664a2.039 2.039 0 0 0 2.035-2.035v-9.965C22.781 4.836 17.945 0 12 0zm5.895 21.965l-.082.043c-1.153.558-2.524.922-4.036 1.082l-.332.035c-.16.012-.32.023-.484.031a15.386 15.386 0 0 1-2.406-.035 9.536 9.536 0 0 1-.332-.031c-1.508-.16-2.883-.524-4.032-1.082l-.086-.043H6.07c-2.593-1.309-4.035-3.621-4.035-6.711v-.004-.004c.004-5.226 4.39-9.695 9.762-9.957h.387c5.394.262 9.78 4.734 9.78 9.965 0 3.09-1.44 5.402-4.03 6.71zm-14.641 0a1.22 1.22 0 0 1-1.219-1.219v-1.719a7.663 7.663 0 0 0 2.5 2.938zm18.71-1.219a1.22 1.22 0 0 1-1.218 1.219h-1.281a7.663 7.663 0 0 0 2.5-2.938zm-9.76-16.273l-.427.004c-4.386.214-8.152 3.015-9.742 6.804v-.5C2.035 5.285 6.504.812 12 .812c5.496 0 9.965 4.473 9.965 9.97v.484c-1.594-3.782-5.363-6.579-9.762-6.793zm0 0"/>
    <path d="M14.48 15.945a.405.405 0 0 0-.566.082.406.406 0 0 0 .078.57l.617.462c-.82 1.73-3.007 2.543-4.87 1.765a.412.412 0 0 0-.536.219.41.41 0 0 0 .223.535 4.672 4.672 0 0 0 1.793.352c.574 0 1.152-.102 1.695-.309 1.043-.398 1.867-1.125 2.356-2.066l.351.261a.403.403 0 0 0 .57-.082.405.405 0 0 0-.082-.566zm0 0"/>
</svg>
